localPackages/DesignSystem/Sources/DesignSystem/Resources/Assets.xcassets/IconSet/ic-calendar-3day.imageset/ic-calendar-3day.svg

<svg width="24" height="24" viewBox="0 0 24 24" fill="none" xmlns="http://www.w3.org/2000/svg">
<g id="ic-calendar-3day">
<path id="Icon" fill-rule="evenodd" clip-rule="evenodd" d="M6 4.5V2.25C6 1.83579 6.33579 1.5 6.75 1.5C7.16421 1.5 7.5 1.83579 7.5 2.25V4.5H16.5V2.25C16.5 1.83579 16.8358 1.5 17.25 1.5C17.6642 1.5 18 1.83579 18 2.25V4.5C20.4853 4.5 22.5 6.51472 22.5 9V18C22.5 20.4853 20.4853 22.5 18 22.5H6C3.51472 22.5 1.5 20.4853 1.5 18V9C1.5 6.51472 3.51472 4.5 6 4.5ZM6 6H7.5L7.5 21H6C4.34315 21 3 19.6569 3 18V9C3 7.34315 4.34315 6 6 6ZM16.5 6V21H18C19.6569 21 21 19.6569 21 18V9C21 7.34315 19.6569 6 18 6H16.5ZM9 6L9 21H15V6H9Z" fill="#0F0F0F"/>
</g>
</svg>

<svg xmlns="http://www.w3.org/2000/svg" width="24" height="24" viewBox="0 0 24 24">
  <g class="ic-calendar-3day">
    <path fill-rule="evenodd" d="M6 4.5V2.25a.75.75 0 0 1 1.5 0V4.5h9V2.25a.75.75 0 0 1 1.5 0V4.5A4.5 4.5 0 0 1 22.5 9v9a4.5 4.5 0 0 1-4.5 4.5H6A4.5 4.5 0 0 1 1.5 18V9A4.5 4.5 0 0 1 6 4.5ZM6 6h1.5v15H6a3 3 0 0 1-3-3V9a3 3 0 0 1 3-3Zm10.5 0v15H18a3 3 0 0 0 3-3V9a3 3 0 0 0-3-3h-1.5ZM9 6v15h6V6H9Z" class="Icon"/>
  </g>
</svg>
